src/components/auth/phone.svg

<?xml version="1.0" encoding="UTF-8"?>
<svg viewBox="0 0 11 16" version="1.1" xmlns="http://www.w3.org/2000/svg" xmlns:xlink="http://www.w3.org/1999/xlink">
    <!-- Generator: Sketch 46.1 (44463) - http://www.bohemiancoding.com/sketch -->
    <title>Group</title>
    <desc>Created with Sketch.</desc>
    <defs></defs>
    <g id="九路泊车视觉设计" stroke="none" stroke-width="1" fill-rule="evenodd">
        <g id="0-1-1登录/注册－扫描二维码进入后" transform="translate(-64.000000, -74.000000)">
            <g id="手机" transform="translate(64.000000, 74.000000)">
                <g id="Group">
                    <path d="M5.25535934,12.8321872 C4.80681209,12.8321872 4.44190353,13.1978383 4.44190353,13.6473532 C4.44190353,14.096834 4.80682908,14.4625191 5.25535934,14.4625191 C5.70392356,14.4625191 6.0688661,14.0968511 6.0688661,13.6473532 C6.06884911,13.1978383 5.70392356,12.8321872 5.25535934,12.8321872 L5.25535934,12.8321872 Z" id="Shape"></path>
                    <path d="M9.27998671,0.00117446809 L1.23076594,0.00117446809 C0.553622156,0.00117446809 0.00271774752,0.553225532 0.00271774752,1.23177872 L0.00271774752,14.7682213 C0.00271774752,15.4467915 0.553622156,15.9988255 1.23076594,15.9988255 L9.27996972,15.9988255 C9.9571135,15.9988255 10.5080009,15.4467915 10.5080009,14.7682213 L10.5080009,1.23177872 C10.5080179,0.553225532 9.95713049,0.00117446809 9.27998671,0.00117446809 L9.27998671,0.00117446809 Z M1.23076594,0.821582979 L9.27996972,0.821582979 C9.50569564,0.821582979 9.68933044,1.00561702 9.68933044,1.23179574 L9.68933044,11.3732085 L0.821422202,11.3732085 L0.821422202,1.23177872 C0.821422202,1.0056 1.005057,0.821582979 1.23076594,0.821582979 L1.23076594,0.821582979 Z M9.27998671,15.1784 L1.23076594,15.1784 C1.005057,15.1784 0.821405216,14.9944 0.821405216,14.7682043 L0.821405216,12.2638298 L9.68933044,12.2638298 L9.68933044,14.7682213 C9.68934743,14.994417 9.50571262,15.1784 9.27998671,15.1784 L9.27998671,15.1784 Z" id="Shape"></path>
                </g>
            </g>
        </g>
    </g>
</svg>

<svg viewBox="0 0 11 16" xmlns="http://www.w3.org/2000/svg"><g fill-rule="evenodd" transform=""><path d="m5.25535934 12.8321872c-.44854725 0-.81345581.3656511-.81345581.815166 0 .4494808.36492555.8151659.81345581.8151659.44856422 0 .81350676-.365668.81350676-.8151659-.00001699-.4495149-.36494254-.815166-.81350676-.815166z"/><path d="m9.27998671.00117447h-8.04922077c-.67714378 0-1.22804819.55205106-1.22804819 1.23060425v13.53644258c0 .6785702.55090441 1.2306042 1.22804819 1.2306042h8.04920378c.67714378 0 1.22803118-.552034 1.22803118-1.2306042v-13.53644258c.000017-.67855319-.55087041-1.23060425-1.22801419-1.23060425zm-8.04922077.82040851h8.04920378c.22572592 0 .40936072.18403404.40936072.41021276v10.14141276h-8.86790824v-10.14142978c0-.22617872.1836348-.41019574.40934374-.41019574zm8.04922077 14.35681702h-8.04922077c-.22570894 0-.40936072-.184-.40936072-.4101957v-2.5043745h8.86792522v2.5043915c.00001699.2261957-.18361782.4101787-.40934373.4101787z"/></g></svg>
